build/img/sprites/tg_btn.svg

<svg width="52" height="52" viewBox="0 0 52 52" fill="none" xmlns="http://www.w3.org/2000/svg">
<rect width="52" height="52" rx="26" fill="white"/>
<path d="M33.5063 18.4824L16.4435 25.1615C15.7569 25.4725 15.5246 26.0954 16.2776 26.4334L20.6549 27.8455L31.2388 21.2058C31.8167 20.789 32.4083 20.9001 31.8992 21.3587L22.8091 29.7133L22.5235 33.2489C22.788 33.7948 23.2723 33.7974 23.5812 33.526L26.0961 31.1105L30.4033 34.3845C31.4037 34.9856 31.948 34.5977 32.1632 33.4958L34.9884 19.9167C35.2817 18.5604 34.7815 17.9628 33.5063 18.4824Z" fill="#232616"/>
</svg>

<svg width="52" height="52" viewBox="0 0 52 52" fill="none" xmlns="http://www.w3.org/2000/svg"><rect width="52" height="52" rx="26" fill="#fff"/><path d="M33.506 18.482l-17.063 6.68c-.686.31-.918.933-.165 1.271l4.377 1.413 10.584-6.64c.578-.417 1.17-.306.66.153l-9.09 8.354-.286 3.536c.265.546.75.548 1.058.277l2.515-2.416 4.307 3.275c1 .6 1.545.213 1.76-.89l2.825-13.578c.294-1.357-.206-1.954-1.482-1.435z" fill="#232616"/></svg>
